!!!!SEGMENT: pl-cz--d-ii-29--006_elsner-jozef--msza-f-op-35-sanctus.krn
!!!cenid: 18xx:184
!!!COM: Elsner, Józef
!!!COM-rismID: pe30000957
!!!CDT: 1769/06/01-1854/04/18
!!!CNT: Polish
!!!OPR: Msza F op. 35
!!!OTL: Sanctus
!!!OMV: 006
!!!PDT:
!!!AGN: Sacred; Mass
!!!SMS-siglum: PL-CZ
!!!SMS-shelfmark: D II-29
!!!SMS-shelfwork: 001-006 M
!!!NIFC-rismSourceID:
!!!NIFC-rismChildID:
!!!NIFC-islandoraID:
!!!URL-pdf-islandora:
!!!URL-scan:
!!!ONB-nifc: UWAGA: części Mszy: Kyrie, Gloria, Graduale, Credo, Offertorium, Sanctus, Agnus Dei
!!!AIN: 1 alto 1 bass 1 organ 1 tenor 1 vox
!!!key:
**kern	**kern	**kern	**text	**text	**text	**text	**kern	**text	**kern	**text	**kern	**text
*part5	*part5	*part4	*part4	*part4	*part4	*part4	*part3	*part3	*part2	*part2	*part1	*part1
*staff6	*staff5	*staff4	*staff4	*staff4	*staff4	*staff4	*staff3	*staff3	*staff2	*staff2	*staff1	*staff1
*Iorgan	*Iempty	*Ibass	*	*	*	*	*Itenor	*	*Ialto	*	*Ivox	*
*I"ORGANO	*	*I"BASSO	*	*	*	*	*I"TENOR	*	*I"ALTO	*	*I"CANTO	*
*I'Org.	*	*I'B.	*	*	*	*	*I'T.	*	*I'A.	*	*I'S.	*
*clefF4	*clefG2	*clefF4	*	*	*	*	*clefC4	*	*clefC3	*	*clefC1	*
*k[b-]	*k[b-]	*k[b-]	*	*	*	*	*k[b-]	*	*k[b-]	*	*k[b-]	*
*F:	*F:	*F:	*	*	*	*	*F:	*	*F:	*	*F:	*
*M4/4	*M4/4	*M4/4	*	*	*	*	*M4/4	*	*M4/4	*	*M4/4	*
*met(c)	*met(c)	*met(c)	*	*	*	*	*met(c)	*	*met(c)	*	*met(c)	*
!	!LO:TX:a:B:t=Andante	!	!	!	!	!	!	!	!	!	!LO:TX:a:B:t=Andante	!
4ryy	4ryy	4F\	1) U-	2) Za-	3) Po-	4) Pan	4A\	1) U-	4c\	1) U-	4f/	1) U-
=1	=1	=1	=1	=1	=1	=1	=1	=1	=1	=1	=1	=1
1FF 1F	1A 1c 1f	4F\	-pa-	-brzmiy-	-wta-	wie-	4A\	-pa-	4c\	-pa-	4f/	-pa-
.	.	4F\	-dniy	-cie	-rzay	-czny	4A\	-dniy	4c\	-dniy	4f/	-dniy
.	.	4F\	na	zna-	ludz-	za-	4A\	na	4c\	na	4f/	na
.	.	4F\	ko-	-mi	-ki	-wsze	4A\	ko-	4c\	ko-	4f/	ko-
=2	=2	=2	=2	=2	=2	=2	=2	=2	=2	=2	=2	=2
2CC/ 2C	4.B-/ 4.e 4.g	2C/^	-la-	Nie-	ro-	wszę-	(4.B-\^	-la-	(4.e\^	-la-	(4.g\^	-la-
.	8c/ 8f 8a	.	.	.	.	.	8c\)	.	8f\)	.	8a\)	.
4FF/ 4F	4A/ 4c 4f	4F\	-na	-ba	-dzie	-dzie	4A\	-na	4c\	-na	4f\	-na
4E-X\	4c/ 4f 4a	4r	.	.	.	.	4r	.	4r	.	4r	.
=3	=3	=3	=3	=3	=3	=3	=3	=3	=3	=3	=3	=3
4D/	4d/ 4f 4b-	4D/	Lu-	Bóg	Bo-	Ku	4F/	Lu-	4f\	Lu-	4b-\	Lu-
4C/	4f/ 4a	4C/	-du	nasz	-giem	nam	4F/	-du	4f\	-du	4a\	-du
4BB-/	4f/ 4dd	4BB-/	czcią	nie	prze-	ła-	4F/	czcią	4f\	czcią	4dd\	czcią
4AA/	4f/ [4cc	4AA/	prze-	po-	-ni-	-ską	4F/	prze-	4f\	prze-	(4cc\	prze-
=4	=4	=4	=4	=4	=4	=4	=4	=4	=4	=4	=4	=4
*	*^	*	*	*	*	*	*	*	*	*	*	*
4GG/	4cc/]	4d\ 4f	4GG/	-ię-	-ię-	-knię-	z dię-	(<2G/	-ię-	(4d\	-ię-	4cc\	-ię-
4C/	4b-/	4e\ 4g	4C/	.	.	.	.	.	.	4e\)	.	4b-\)	.
*	*v	*v	*	*	*	*	*	*	*	*	*	*	*
4FF/	4f/ 4a	4FF/	-ty	-ty	-ty	-ty	4A/)	-ty	4f\	-ty	4a\	-ty
4r	4r	4D\	U-	W po-	Na	Niech	4F/	U-	4f\	U-	4a\	U-
=5	=5	=5	=5	=5	=5	=5	=5	=5	=5	=5	=5	=5
*	*^	*	*	*	*	*	*	*	*	*	*	*
2D\	2a/	2f\	4D\	-wiel-	-sta-	wscho-	wie-	4F/	-wiel-	4f\	-wiel-	4a\	-wiel-
.	.	.	4D\	-biay	-ci	-dzie	-cznie	4F/	-biay	4f\	-biay	4a\	-biay
2C#X\	2a/	2e\ 2g	4C#X/	twe-	przy-	i	wiel-	4G/	twe-	4e\	twe-	4a\	twe-
.	.	.	4C#/	-go	-szedł	Za-	-bion	4G/	-go	4e\	-go	4a\	-go
*	*v	*v	*	*	*	*	*	*	*	*	*	*	*
=6	=6	=6	=6	=6	=6	=6	=6	=6	=6	=6	=6	=6
2C\	2e/^> 2g 2b-	2Cn\^	Pa-	chle-	-cho-	bę-	2G/^>	Pa-	2e\^	Pa-	(4.b-\^	Pa-
.	.	.	.	.	.	.	.	.	.	.	8cc\)	.
4F\	8f\ 8a	4F\	-na	-ba	-dzie	-dzie	4F/	-na	4f\	-na	4a\	-na
.	8f\L 8a	.	.	.	.	.	.	.	.	.	.	.
4r	8g\ 8b-	4r	.	.	.	.	4r	.	4r	.	4r	.
.	8a\J 8cc	.	.	.	.	.	.	.	.	.	.	.
=7	=7	=7	=7	=7	=7	=7	=7	=7	=7	=7	=7	=7
!!LO:PB:g=original
*	*^	*	*	*	*	*	*^	*	*	*	*	*
!	!	!LO:N:vis=8	!	!	!	!	!	!	!	!	!	!	!	!
4BB-;</	[4dd/	8.f\L	4BB-/	Swię-	Swię-	Swię-	Swię-	4d/	4B-\	Swię-	8.f;\L	Swię-	4dd;\	Swię-
.	.	16f#X\Jk	.	.	.	.	.	.	.	.	16f\Jk	-ty	.	.
8BB-/	8g/ 8dd]	4ryy	8BB-/	-ty	-ty	-ty	-ty	8d/	8B-\	-ty	8g\	.	8dd\	-ty
8r	8r	.	8r	.	.	.	.	8r	8ryy	.	8r	.	8r	.
!	!	!	!	!	!	!	!	!	!	!	!	!	!	!
4C;</	4g/ 4b- 4cc 4ee	2ryy	4C/	Swię-	Swię-	Swię-	Swię-	4c/	4B-\	Swię-	4g\	Swię-	4ee;\	Swię-
8C/	8g/ 8b- 8cc 8ee	.	8C/	-ty	-ty	-ty	-ty	8c/	8B-\	-ty	8g\	-ty	8ee\	-ty
8r	8r	.	8r	.	.	.	.	8r	8ryy	.	8r	.	8r	.
*	*v	*v	*	*	*	*	*	*	*	*	*	*	*	*
=	=	=	=	=	=	=	=	=	=	=	=	=	=
!LO:TX:b:t=P:problem=fermata pod calym taktem	!LO:TX:a:t=P:problem=fermata nad calym taktem	!LO:TX:a:t=P:problem=fermata nad calym taktem	!	!	!	!	!	!	!	!	!	!LO:TX:a:t=P:problem=fermata nad calym taktem	!
2FF;</ 2F	2a;\ 2cc 2ff	2FF;/ 2F	Swię-	Swię-	Swię-	Swię-	2c/	2A\	Swię-	2f\	Swię-	2ff;\	Swię-
4FF/ 4F	4a\ 4cc 4ff	4FF/ 4F	-ty	-ty	-ty	-ty	4c/	4A\	-ty	4f\	-ty	4ff\	-ty
*	*	*	*	*	*	*	*v	*v	*	*	*	*	*
==8	==8	==8	==8	==8	==8	==8	==8	==8	==8	==8	==8	==8
*	*^	*	*	*	*	*	*	*	*	*	*	*
*clefG2	*	*	*	*	*	*	*	*	*	*	*	*	*
!	!LO:TX:a:B:t=Preludium	!	!	!	!	!	!	!	!	!	!	!	!
4a/	4ff/	4cc\	4ryy	.	.	.	.	4ryy	.	4ryy	.	4ryy	.
=9	=9	=9	=9	=9	=9	=9	=9	=9	=9	=9	=9	=9	=9
4b-/	(2.ff/	4dd\	1ryy	.	.	.	.	1ryy	.	1ryy	.	1ryy	.
4a/	.	4cc\	.	.	.	.	.	.	.	.	.	.	.
2g/	.	2b-\	.	.	.	.	.	.	.	.	.	.	.
.	4een/)	.	.	.	.	.	.	.	.	.	.	.	.
=10	=10	=10	=10	=10	=10	=10	=10	=10	=10	=10	=10	=10	=10
(4f/	4ff/	4a\	1ryy	.	.	.	.	1ryy	.	1ryy	.	1ryy	.
4a/	4ee-X/	4cc\	.	.	.	.	.	.	.	.	.	.	.
4b-/)	4dd/	4dd\	.	.	.	.	.	.	.	.	.	.	.
4g/	4ee-/	4b-\	.	.	.	.	.	.	.	.	.	.	.
=11	=11	=11	=11	=11	=11	=11	=11	=11	=11	=11	=11	=11	=11
4g-X/	4een/	[4b-\ 4dd-X	1ryy	.	.	.	.	1ryy	.	1ryy	.	1ryy	.
4f/	[4ff/	4b-\] 4ddn	.	.	.	.	.	.	.	.	.	.	.
4e-X/	4ff/]	4a\ 4cc	.	.	.	.	.	.	.	.	.	.	.
4d/	4ff/	4b-\	.	.	.	.	.	.	.	.	.	.	.
=12	=12	=12	=12	=12	=12	=12	=12	=12	=12	=12	=12	=12	=12
4e/	4gg/	2b-\	1ryy	.	.	.	.	1ryy	.	1ryy	.	1ryy	.
4d/	4ff/	.	.	.	.	.	.	.	.	.	.	.	.
4c#X/	4een/	4b-\	.	.	.	.	.	.	.	.	.	.	.
4cn/	4ee-X/	4f\ 4a	.	.	.	.	.	.	.	.	.	.	.
*clefF4	*	*	*	*	*	*	*	*	*	*	*	*	*
=13	=13	=13	=13	=13	=13	=13	=13	=13	=13	=13	=13	=13	=13
4B-\	2b-/ 2dd	2f\	1ryy	.	.	.	.	1ryy	.	1ryy	.	1ryy	.
4A\	.	.	.	.	.	.	.	.	.	.	.	.	.
4G\	2b-/ 2dd	2g\	.	.	.	.	.	.	.	.	.	.	.
4F\	.	.	.	.	.	.	.	.	.	.	.	.	.
=14	=14	=14	=14	=14	=14	=14	=14	=14	=14	=14	=14	=14	=14
4E-X\	1cc	1g 1b-	1ryy	.	.	.	.	1ryy	.	1ryy	.	1ryy	.
4D\	.	.	.	.	.	.	.	.	.	.	.	.	.
4C\	.	.	.	.	.	.	.	.	.	.	.	.	.
8D\L	.	.	.	.	.	.	.	.	.	.	.	.	.
8E-\J	.	.	.	.	.	.	.	.	.	.	.	.	.
=15	=15	=15	=15	=15	=15	=15	=15	=15	=15	=15	=15	=15	=15
*	*	*^	*	*	*	*	*	*	*	*	*	*	*
!	!	!	!LO:N:vis=2	!	!	!	!	!	!	!	!	!	!	!
1F	1cc	2.f\	2.b-\	1ryy	.	.	.	.	1ryy	.	1ryy	.	1ryy	.
.	.	.	.	.	.	.	.	.	.	.	.	.	.	.
!	!	!	!LO:N:vis=1	!	!	!	!	!	!	!	!	!	!	!
.	.	4e-X\	4a/	.	.	.	.	.	.	.	.	.	.	.
*	*v	*v	*v	*	*	*	*	*	*	*	*	*	*	*
=16	=16	=16	=16	=16	=16	=16	=16	=16	=16	=16	=16	=16
2.BB-/	2.d/ 2.f 2.b-	2ryy	.	.	.	.	2ryy	.	2ryy	.	2ryy	.
.	.	4ryy	.	.	.	.	4ryy	.	4ryy	.	4ryy	.
==	==	==	==	==	==	==	==	==	==	==	==	==
*-	*-	*-	*-	*-	*-	*-	*-	*-	*-	*-	*-	*-
!!!system-decoration: [s1,s2,s3,s4]{(s5,s6)}
!!!RDF**kern: > = above
!!!RDF**kern: < = below
!!!ENC: Andrzej Borzym
!!!END: 2020-03-02
!!!ENC: Marta Lawrence
!!!END: 2020-04-02
!!!YEC: Copyright 2022 Narodowy Instytut Fryderyka Chopina (https://polishscores.org)
!!!YEM: License CC-BY-4.0 (https://creativecommons.org/licenses/by/4.0)
